img/new-main/calendar.svg

<svg width="206" height="169" viewBox="0 0 206 169" fill="none" xmlns="http://www.w3.org/2000/svg">
<path d="M0.623489 168.439L204.734 168.439L204.734 12.321L0.623489 12.321L0.623489 168.439Z" fill="white"/>
<path d="M204.732 169.001H0.585092C0.429945 169.001 0.281136 168.939 0.171431 168.83C0.0617252 168.72 0.000122081 168.571 0.000122081 168.416V12.3332C-0.00146641 12.2554 0.0124597 12.1781 0.0411458 12.1057C0.0698318 12.0334 0.112652 11.9675 0.167131 11.9119C0.221611 11.8563 0.286643 11.8121 0.358405 11.782C0.430168 11.7518 0.507256 11.7363 0.585092 11.7363H204.732C204.81 11.7363 204.887 11.7518 204.958 11.782C205.03 11.8121 205.095 11.8563 205.15 11.9119C205.204 11.9675 205.247 12.0334 205.276 12.1057C205.304 12.1781 205.318 12.2554 205.317 12.3332V168.452C205.308 168.601 205.242 168.74 205.133 168.842C205.025 168.944 204.881 169.001 204.732 169.001ZM1.20584 167.807H204.159V12.9182H1.20584V167.807Z" fill="#282828"/>
<g opacity="0.13">
<path d="M204.736 26.5391H0.625V31.2309H204.736V26.5391Z" fill="#282828"/>
</g>
<path d="M0.623489 26.2656L204.734 26.2656V12.3216L0.623489 12.3216V26.2656Z" fill="#F9B974"/>
<path d="M204.732 26.8623H0.585092C0.429945 26.8623 0.281136 26.8007 0.171431 26.691C0.0617252 26.5812 0.000122081 26.4324 0.000122081 26.2773V12.3332C-0.00146641 12.2554 0.0124597 12.1781 0.0411458 12.1057C0.0698318 12.0334 0.112652 11.9675 0.167131 11.9119C0.221611 11.8563 0.286643 11.8121 0.358405 11.782C0.430168 11.7518 0.507256 11.7363 0.585092 11.7363H204.732C204.81 11.7363 204.887 11.7518 204.958 11.782C205.03 11.8121 205.095 11.8563 205.15 11.9119C205.204 11.9675 205.247 12.0334 205.276 12.1057C205.304 12.1781 205.318 12.2554 205.317 12.3332V26.2773C205.317 26.4324 205.255 26.5812 205.145 26.691C205.036 26.8007 204.887 26.8623 204.732 26.8623ZM1.20584 25.7401H204.159V12.9182H1.20584V25.7401Z" fill="#282828"/>
<path d="M154.866 19.8894C154.711 19.8894 154.562 19.8277 154.453 19.718C154.343 19.6083 154.281 19.4595 154.281 19.3044V0.59692C154.281 0.438607 154.344 0.286778 154.456 0.174833C154.568 0.0628892 154.72 0 154.878 0C155.036 0 155.188 0.0628892 155.3 0.174833C155.412 0.286778 155.475 0.438607 155.475 0.59692V19.3044C155.475 19.3833 155.459 19.4613 155.428 19.5339C155.398 19.6065 155.352 19.6721 155.295 19.7267C155.239 19.7814 155.171 19.8239 155.097 19.8519C155.024 19.8798 154.945 19.8926 154.866 19.8894Z" fill="#282828"/>
<path d="M55.0147 19.8894C54.8595 19.8894 54.7108 19.8277 54.6011 19.718C54.4914 19.6083 54.4297 19.4595 54.4297 19.3044V0.59692C54.4297 0.438607 54.4926 0.286778 54.6046 0.174833C54.7165 0.0628892 54.8683 0 55.0266 0C55.1849 0 55.3368 0.0628892 55.4487 0.174833C55.5607 0.286778 55.6235 0.438607 55.6235 0.59692V19.3044C55.6236 19.3833 55.6077 19.4613 55.5768 19.5339C55.5459 19.6065 55.5007 19.6721 55.4438 19.7267C55.387 19.7814 55.3196 19.8239 55.2459 19.8519C55.1721 19.8798 55.0935 19.8926 55.0147 19.8894Z" fill="#282828"/>
<path d="M42.6067 52.6602H22.1562V69.1352H42.6067V52.6602Z" fill="white"/>
<path d="M42.6177 69.7192H22.1553C22.0001 69.7192 21.8513 69.6576 21.7416 69.5478C21.6319 69.4381 21.5703 69.2893 21.5703 69.1342V52.6592C21.5703 52.5041 21.6319 52.3553 21.7416 52.2456C21.8513 52.1358 22.0001 52.0742 22.1553 52.0742H42.6177C42.7729 52.0742 42.9216 52.1358 43.0313 52.2456C43.141 52.3553 43.2027 52.5041 43.2027 52.6592V69.1342C43.2027 69.2893 43.141 69.4381 43.0313 69.5478C42.9216 69.6576 42.7729 69.7192 42.6177 69.7192ZM22.7403 68.5253H42.0208V53.1964H22.7403V68.5253Z" fill="#282828"/>
<path d="M77.4582 52.6602H57.0078V69.1352H77.4582V52.6602Z" fill="white"/>
<path d="M77.4573 69.7192H57.0069C56.8518 69.7192 56.703 69.6576 56.5933 69.5478C56.4836 69.4381 56.4219 69.2893 56.4219 69.1342V52.6592C56.4219 52.5041 56.4836 52.3553 56.5933 52.2456C56.703 52.1358 56.8518 52.0742 57.0069 52.0742H77.4573C77.6125 52.0742 77.7613 52.1358 77.871 52.2456C77.9807 52.3553 78.0424 52.5041 78.0424 52.6592V69.1342C78.0424 69.2893 77.9807 69.4381 77.871 69.5478C77.7613 69.6576 77.6125 69.7192 77.4573 69.7192ZM57.5919 68.5253H76.8963V53.1964H57.5919V68.5253Z" fill="#282828"/>
<path d="M112.318 52.6602H91.8672V69.1352H112.318V52.6602Z" fill="white"/>
<path d="M112.317 69.7192H91.8662C91.7111 69.7192 91.5623 69.6576 91.4526 69.5478C91.3429 69.4381 91.2812 69.2893 91.2812 69.1342V52.6592C91.2812 52.5041 91.3429 52.3553 91.4526 52.2456C91.5623 52.1358 91.7111 52.0742 91.8662 52.0742H112.317C112.472 52.0742 112.621 52.1358 112.73 52.2456C112.84 52.3553 112.902 52.5041 112.902 52.6592V69.1342C112.902 69.2893 112.84 69.4381 112.73 69.5478C112.621 69.6576 112.472 69.7192 112.317 69.7192ZM92.4513 68.5253H111.732V53.1964H92.4154L92.4513 68.5253Z" fill="#282828"/>
<path d="M148.333 52.6602H127.883V69.1352H148.333V52.6602Z" fill="white"/>
<path d="M148.332 69.7193H127.882C127.727 69.7193 127.578 69.6577 127.468 69.548C127.359 69.4383 127.297 69.2895 127.297 69.1343V52.6593C127.297 52.5042 127.359 52.3554 127.468 52.2457C127.578 52.136 127.727 52.0743 127.882 52.0743H148.332C148.41 52.0727 148.486 52.0867 148.558 52.1156C148.63 52.1444 148.695 52.1874 148.75 52.2421C148.804 52.2967 148.847 52.3618 148.876 52.4336C148.905 52.5053 148.919 52.5821 148.917 52.6593V69.1343C148.919 69.2116 148.905 69.2884 148.876 69.3601C148.847 69.4318 148.804 69.497 148.75 69.5516C148.695 69.6062 148.63 69.6493 148.558 69.6781C148.486 69.7069 148.41 69.7209 148.332 69.7193ZM128.467 68.5255H147.747V53.1966H128.467V68.5255Z" fill="#282828"/>
<path d="M183.193 52.6602H162.742V69.1352H183.193V52.6602Z" fill="white"/>
<path d="M183.144 69.7211H162.741C162.586 69.7211 162.437 69.6595 162.328 69.5498C162.218 69.4401 162.156 69.2913 162.156 69.1362V52.6612C162.156 52.506 162.218 52.3572 162.328 52.2475C162.437 52.1378 162.586 52.0762 162.741 52.0762H183.144C183.299 52.0762 183.448 52.1378 183.558 52.2475C183.667 52.3572 183.729 52.506 183.729 52.6612V69.1362C183.729 69.2913 183.667 69.4401 183.558 69.5498C183.448 69.6595 183.299 69.7211 183.144 69.7211ZM163.278 68.5273H182.559V53.1984H163.326L163.278 68.5273Z" fill="#282828"/>
<path d="M42.6067 87.8906H22.1562V104.366H42.6067V87.8906Z" fill="white"/>
<path d="M42.6178 104.95H22.1554C22.0781 104.951 22.0013 104.937 21.9296 104.908C21.8579 104.88 21.7928 104.837 21.7381 104.782C21.6835 104.727 21.6404 104.662 21.6116 104.59C21.5828 104.519 21.5688 104.442 21.5704 104.365V87.8897C21.5704 87.7345 21.632 87.5857 21.7417 87.476C21.8515 87.3663 22.0003 87.3047 22.1554 87.3047H42.6178C42.773 87.3047 42.9217 87.3663 43.0314 87.476C43.1411 87.5857 43.2028 87.7345 43.2028 87.8897V104.365C43.2044 104.442 43.1904 104.519 43.1616 104.59C43.1328 104.662 43.0897 104.727 43.0351 104.782C42.9804 104.837 42.9153 104.88 42.8436 104.908C42.7719 104.937 42.6951 104.951 42.6178 104.95ZM22.7404 103.756H42.0209V88.4746H22.7404V103.756Z" fill="#282828"/>
<path d="M77.4582 87.8906H57.0078V104.366H77.4582V87.8906Z" fill="white"/>
<path d="M77.4575 104.95H57.007C56.9298 104.951 56.8529 104.937 56.7812 104.908C56.7095 104.88 56.6444 104.837 56.5897 104.782C56.5351 104.727 56.4921 104.662 56.4632 104.59C56.4344 104.519 56.4204 104.442 56.422 104.365V87.8897C56.422 87.7345 56.4837 87.5857 56.5934 87.476C56.7031 87.3663 56.8519 87.3047 57.007 87.3047H77.4575C77.6126 87.3047 77.7614 87.3663 77.8711 87.476C77.9808 87.5857 78.0425 87.7345 78.0425 87.8897V104.365C78.0441 104.442 78.0301 104.519 78.0013 104.59C77.9724 104.662 77.9294 104.727 77.8748 104.782C77.8201 104.837 77.755 104.88 77.6833 104.908C77.6116 104.937 77.5347 104.951 77.4575 104.95ZM57.592 103.756H76.8964V88.4746H57.592V103.756Z" fill="#282828"/>
<path d="M112.318 87.8906H91.8672V104.366H112.318V87.8906Z" fill="white"/>
<path d="M112.317 104.95H91.8663C91.7891 104.951 91.7123 104.937 91.6406 104.908C91.5689 104.88 91.5038 104.837 91.4491 104.782C91.3945 104.727 91.3514 104.662 91.3226 104.59C91.2938 104.519 91.2797 104.442 91.2814 104.365V87.8897C91.2814 87.7345 91.3431 87.5857 91.4528 87.476C91.5625 87.3663 91.7112 87.3047 91.8663 87.3047H112.317C112.472 87.3047 112.621 87.3663 112.73 87.476C112.84 87.5857 112.902 87.7345 112.902 87.8897V104.365C112.903 104.442 112.889 104.519 112.861 104.59C112.832 104.662 112.789 104.727 112.734 104.782C112.679 104.837 112.614 104.88 112.543 104.908C112.471 104.937 112.394 104.951 112.317 104.95ZM92.4514 103.756H111.732V88.4746H92.4155L92.4514 103.756Z" fill="#282828"/>
<path d="M148.333 87.8906H127.883V104.366H148.333V87.8906Z" fill="white"/>
<path d="M148.333 104.95H127.882C127.805 104.951 127.728 104.937 127.656 104.909C127.585 104.88 127.519 104.837 127.465 104.782C127.41 104.727 127.367 104.662 127.338 104.591C127.309 104.519 127.295 104.442 127.297 104.365V87.8898C127.297 87.7346 127.359 87.5858 127.468 87.4761C127.578 87.3664 127.727 87.3048 127.882 87.3048H148.333C148.41 87.3032 148.487 87.3172 148.558 87.346C148.63 87.3748 148.695 87.4179 148.75 87.4725C148.804 87.5272 148.847 87.5923 148.876 87.664C148.905 87.7357 148.919 87.8125 148.918 87.8898V104.365C148.919 104.442 148.905 104.519 148.876 104.591C148.847 104.662 148.804 104.727 148.75 104.782C148.695 104.837 148.63 104.88 148.558 104.909C148.487 104.937 148.41 104.951 148.333 104.95ZM128.467 103.756H147.747V88.4748H128.467V103.756Z" fill="#282828"/>
<path d="M183.193 87.8906H162.742V104.366H183.193V87.8906Z" fill="white"/>
<path d="M183.144 104.95H162.741C162.664 104.951 162.587 104.937 162.516 104.908C162.444 104.88 162.379 104.837 162.324 104.782C162.269 104.727 162.226 104.662 162.198 104.59C162.169 104.519 162.155 104.442 162.156 104.365V87.8897C162.156 87.7345 162.218 87.5857 162.328 87.476C162.437 87.3663 162.586 87.3047 162.741 87.3047H183.144C183.299 87.3047 183.448 87.3663 183.558 87.476C183.667 87.5857 183.729 87.7345 183.729 87.8897V104.365C183.731 104.442 183.717 104.519 183.688 104.59C183.659 104.662 183.616 104.727 183.561 104.782C183.507 104.837 183.442 104.88 183.37 104.908C183.298 104.937 183.221 104.951 183.144 104.95ZM163.279 103.756H182.559V88.4746H163.326L163.279 103.756Z" fill="#282828"/>
<path d="M42.6067 123.133H22.1562V139.608H42.6067V123.133Z" fill="white"/>
<path d="M42.6177 140.192H22.1553C22.0001 140.192 21.8513 140.13 21.7416 140.021C21.6319 139.911 21.5703 139.762 21.5703 139.607V123.132C21.5703 122.977 21.6319 122.828 21.7416 122.718C21.8513 122.609 22.0001 122.547 22.1553 122.547H42.6177C42.7729 122.547 42.9216 122.609 43.0313 122.718C43.141 122.828 43.2027 122.977 43.2027 123.132V139.607C43.2027 139.762 43.141 139.911 43.0313 140.021C42.9216 140.13 42.7729 140.192 42.6177 140.192ZM22.7403 138.998H42.0208V123.717H22.7403V138.998Z" fill="#282828"/>
<path d="M77.4582 123.133H57.0078V139.608H77.4582V123.133Z" fill="white"/>
<path d="M77.4573 140.192H57.0069C56.8518 140.192 56.703 140.13 56.5933 140.021C56.4836 139.911 56.4219 139.762 56.4219 139.607V123.132C56.4219 122.977 56.4836 122.828 56.5933 122.718C56.703 122.609 56.8518 122.547 57.0069 122.547H77.4573C77.6125 122.547 77.7613 122.609 77.871 122.718C77.9807 122.828 78.0424 122.977 78.0424 123.132V139.607C78.0424 139.762 77.9807 139.911 77.871 140.021C77.7613 140.13 77.6125 140.192 77.4573 140.192ZM57.5919 138.998H76.8963V123.717H57.5919V138.998Z" fill="#282828"/>
<path d="M112.318 123.133H91.8672V139.608H112.318V123.133Z" fill="white"/>
<path d="M112.317 140.192H91.8662C91.7111 140.192 91.5623 140.13 91.4526 140.021C91.3429 139.911 91.2812 139.762 91.2812 139.607V123.132C91.2812 122.977 91.3429 122.828 91.4526 122.718C91.5623 122.609 91.7111 122.547 91.8662 122.547H112.317C112.472 122.547 112.621 122.609 112.73 122.718C112.84 122.828 112.902 122.977 112.902 123.132V139.607C112.902 139.762 112.84 139.911 112.73 140.021C112.621 140.13 112.472 140.192 112.317 140.192ZM92.4513 138.998H111.732V123.717H92.4154L92.4513 138.998Z" fill="#282828"/>
<path d="M148.333 123.133H127.883V139.608H148.333V123.133Z" fill="white"/>
<path d="M148.332 140.192H127.882C127.727 140.192 127.578 140.13 127.468 140.021C127.359 139.911 127.297 139.762 127.297 139.607V123.132C127.297 122.977 127.359 122.828 127.468 122.718C127.578 122.609 127.727 122.547 127.882 122.547H148.332C148.41 122.545 148.486 122.559 148.558 122.588C148.63 122.617 148.695 122.66 148.75 122.715C148.804 122.769 148.847 122.835 148.876 122.906C148.905 122.978 148.919 123.055 148.917 123.132V139.607C148.919 139.684 148.905 139.761 148.876 139.833C148.847 139.904 148.804 139.97 148.75 140.024C148.695 140.079 148.63 140.122 148.558 140.151C148.486 140.18 148.41 140.194 148.332 140.192ZM128.467 138.998H147.747V123.717H128.467V138.998Z" fill="#282828"/>
<path d="M183.193 123.133H162.742V139.608H183.193V123.133Z" fill="white"/>
<path d="M183.144 140.192H162.741C162.586 140.192 162.437 140.13 162.328 140.021C162.218 139.911 162.156 139.762 162.156 139.607V123.132C162.156 122.977 162.218 122.828 162.328 122.718C162.437 122.609 162.586 122.547 162.741 122.547H183.144C183.299 122.547 183.448 122.609 183.558 122.718C183.667 122.828 183.729 122.977 183.729 123.132V139.607C183.729 139.762 183.667 139.911 183.558 140.021C183.448 140.13 183.299 140.192 183.144 140.192ZM163.278 138.998H182.559V123.717H163.326L163.278 138.998Z" fill="#282828"/>
<path d="M66.5687 66.2104C66.4806 66.2109 66.3937 66.1906 66.3148 66.1512C66.236 66.1118 66.1675 66.0544 66.115 65.9836C64.0573 63.318 62.1674 60.527 60.4562 57.6267C60.4104 57.5608 60.3786 57.4861 60.3629 57.4074C60.3472 57.3286 60.3478 57.2475 60.3648 57.169C60.3818 57.0905 60.4148 57.0164 60.4616 56.9512C60.5085 56.886 60.5683 56.8311 60.6373 56.7901C60.7063 56.749 60.783 56.7226 60.8627 56.7124C60.9424 56.7023 61.0233 56.7087 61.1004 56.7312C61.1775 56.7537 61.2491 56.7918 61.3108 56.8431C61.3725 56.8945 61.423 56.9581 61.4591 57.0298C63.0219 59.6782 64.7317 62.237 66.5807 64.6943L73.2662 56.3374C73.3105 56.2683 73.3688 56.2094 73.4374 56.1644C73.5059 56.1193 73.5832 56.0892 73.6642 56.076C73.7452 56.0628 73.8279 56.0667 73.9073 56.0876C73.9866 56.1085 74.0607 56.1458 74.1246 56.1971C74.1886 56.2485 74.2411 56.3127 74.2786 56.3856C74.3161 56.4586 74.3379 56.5386 74.3425 56.6205C74.3471 56.7024 74.3345 56.7843 74.3053 56.861C74.2762 56.9377 74.2313 57.0074 74.1735 57.0656L67.0104 65.9717C66.958 66.0406 66.8915 66.0975 66.8154 66.1387C66.7392 66.1799 66.6551 66.2043 66.5687 66.2104Z" fill="#282828"/>
<path d="M138.166 100.294C138.065 100.293 137.965 100.267 137.877 100.217C137.789 100.166 137.716 100.094 137.665 100.007C136.184 97.536 134.561 95.1125 132.889 92.8442C132.841 92.7831 132.805 92.7127 132.785 92.6375C132.765 92.5623 132.76 92.4837 132.772 92.4066C132.783 92.3295 132.81 92.2555 132.85 92.1891C132.891 92.1227 132.945 92.0653 133.009 92.0204C133.132 91.9298 133.287 91.8916 133.439 91.9139C133.591 91.9363 133.728 92.0174 133.82 92.1398C135.36 94.2171 136.829 96.3779 138.178 98.5746C139.707 95.8036 141.559 93.2229 143.693 90.8863C143.801 90.7865 143.942 90.7309 144.089 90.7305C144.236 90.7301 144.378 90.785 144.486 90.8842C144.594 90.9835 144.661 91.1198 144.674 91.2662C144.686 91.4126 144.643 91.5582 144.553 91.6742C142.258 94.1934 140.303 97.0031 138.739 100.031C138.688 100.121 138.616 100.197 138.528 100.251C138.441 100.305 138.341 100.336 138.238 100.342L138.166 100.294Z" fill="#282828"/>
<path d="M100.954 136.767C100.845 136.767 100.738 136.738 100.645 136.681C100.552 136.624 100.477 136.542 100.429 136.445L96.4291 128.326C96.3947 128.257 96.3741 128.182 96.3687 128.105C96.3632 128.029 96.3729 127.951 96.3973 127.878C96.4217 127.805 96.4602 127.737 96.5108 127.679C96.5613 127.621 96.6228 127.573 96.6918 127.539C96.7608 127.504 96.8359 127.483 96.9128 127.478C96.9898 127.473 97.067 127.482 97.1402 127.507C97.2133 127.531 97.281 127.57 97.3392 127.62C97.3975 127.671 97.4452 127.732 97.4797 127.801L100.918 134.797C102.286 131.819 104.058 129.043 106.183 126.548C106.236 126.492 106.3 126.448 106.371 126.418C106.442 126.388 106.518 126.373 106.595 126.373C106.672 126.373 106.748 126.388 106.818 126.418C106.889 126.448 106.953 126.492 107.007 126.548C107.125 126.647 107.199 126.79 107.213 126.945C107.226 127.099 107.178 127.253 107.078 127.371C104.752 130.093 102.866 133.163 101.491 136.468C101.449 136.572 101.379 136.66 101.288 136.724C101.196 136.787 101.089 136.823 100.978 136.827L100.954 136.767Z" fill="#282828"/>
</svg>

<svg width="206" height="169" fill="none" xmlns="http://www.w3.org/2000/svg"><path d="M.623 168.439h204.111V12.321H.624v156.118z" fill="#fff"/><path d="M204.732 169.001H.585a.588.588 0 01-.585-.585V12.333a.585.585 0 01.585-.597h204.147a.578.578 0 01.418.176.598.598 0 01.167.421v156.119a.585.585 0 01-.585.549zM1.206 167.807h202.953V12.918H1.206v154.889z" fill="#282828"/><path d="M204.736 26.54H.625v4.69h204.111v-4.69z" fill="#282828" opacity=".13"/><path d="M.623 26.266h204.111V12.322H.624v13.944z" fill="#F9B974"/><path d="M204.732 26.862H.585A.585.585 0 010 26.277V12.333a.585.585 0 01.585-.597h204.147a.578.578 0 01.418.176.598.598 0 01.167.421v13.944a.585.585 0 01-.585.585zM1.206 25.74h202.953V12.918H1.206V25.74z" fill="#282828"/><path d="M154.866 19.89a.583.583 0 01-.585-.586V.597a.597.597 0 011.194 0v18.707a.584.584 0 01-.609.585zm-99.851 0a.585.585 0 01-.585-.586V.597a.597.597 0 111.194 0v18.707a.584.584 0 01-.61.585z" fill="#282828"/><path d="M42.607 52.66h-20.45v16.475h20.45V52.66z" fill="#fff"/><path d="M42.618 69.72H22.155a.585.585 0 01-.585-.586V52.66a.585.585 0 01.585-.585h20.463a.584.584 0 01.585.585v16.475a.585.585 0 01-.585.585zM22.74 68.524h19.28V53.196H22.74v15.33z" fill="#282828"/><path d="M77.458 52.66h-20.45v16.475h20.45V52.66z" fill="#fff"/><path d="M77.457 69.72h-20.45a.585.585 0 01-.585-.586V52.66a.585.585 0 01.585-.585h20.45a.585.585 0 01.585.585v16.475a.585.585 0 01-.585.585zm-19.865-1.195h19.304V53.196H57.592v15.33z" fill="#282828"/><path d="M112.318 52.66h-20.45v16.475h20.45V52.66z" fill="#fff"/><path d="M112.317 69.72h-20.45a.585.585 0 01-.586-.586V52.66a.585.585 0 01.585-.585h20.451a.582.582 0 01.585.585v16.475a.584.584 0 01-.585.585zm-19.866-1.195h19.281V53.196H92.415l.036 15.33z" fill="#282828"/><path d="M148.333 52.66h-20.45v16.475h20.45V52.66z" fill="#fff"/><path d="M148.332 69.72h-20.45a.587.587 0 01-.585-.586V52.66a.588.588 0 01.585-.585h20.45a.572.572 0 01.585.585v16.475a.563.563 0 01-.167.418.576.576 0 01-.418.167zm-19.865-1.195h19.28V53.197h-19.28v15.328z" fill="#282828"/><path d="M183.193 52.66h-20.451v16.475h20.451V52.66z" fill="#fff"/><path d="M183.144 69.721h-20.403a.583.583 0 01-.585-.585V52.661a.584.584 0 01.585-.585h20.403a.587.587 0 01.585.585v16.475a.588.588 0 01-.585.585zm-19.866-1.194h19.281V53.198h-19.233l-.048 15.33z" fill="#282828"/><path d="M42.607 87.89h-20.45v16.476h20.45V87.891z" fill="#fff"/><path d="M42.618 104.95H22.155a.582.582 0 01-.417-.168.576.576 0 01-.168-.417V87.89a.585.585 0 01.585-.585h20.463a.585.585 0 01.585.585v16.475a.569.569 0 01-.36.543.582.582 0 01-.225.042zm-19.878-1.194h19.28V88.475H22.74v15.281z" fill="#282828"/><path d="M77.458 87.89h-20.45v16.476h20.45V87.891z" fill="#fff"/><path d="M77.457 104.95h-20.45a.582.582 0 01-.417-.168.578.578 0 01-.168-.417V87.89a.585.585 0 01.585-.585h20.45a.585.585 0 01.586.585v16.475a.569.569 0 01-.36.543.582.582 0 01-.226.042zm-19.865-1.194h19.304V88.475H57.592v15.281z" fill="#282828"/><path d="M112.318 87.89h-20.45v16.476h20.45V87.891z" fill="#fff"/><path d="M112.317 104.95h-20.45a.582.582 0 01-.544-.36.567.567 0 01-.042-.225V87.89a.585.585 0 01.585-.585h20.451a.583.583 0 01.585.585v16.475a.574.574 0 01-.585.585zm-19.866-1.194h19.281V88.475H92.415l.036 15.281z" fill="#282828"/><path d="M148.333 87.89h-20.45v16.476h20.45V87.891z" fill="#fff"/><path d="M148.333 104.95h-20.451a.57.57 0 01-.544-.359.566.566 0 01-.041-.226V87.89a.588.588 0 01.585-.585h20.451a.569.569 0 01.543.359.582.582 0 01.042.226v16.475a.585.585 0 01-.168.417.574.574 0 01-.417.168zm-19.866-1.194h19.28V88.475h-19.28v15.281z" fill="#282828"/><path d="M183.193 87.89h-20.451v16.476h20.451V87.891z" fill="#fff"/><path d="M183.144 104.95h-20.403a.577.577 0 01-.585-.585V87.89a.584.584 0 01.585-.585h20.403a.587.587 0 01.585.585v16.475a.558.558 0 01-.168.417.585.585 0 01-.417.168zm-19.865-1.194h19.28V88.475h-19.233l-.047 15.281z" fill="#282828"/><path d="M42.607 123.133h-20.45v16.475h20.45v-16.475z" fill="#fff"/><path d="M42.618 140.192H22.155a.588.588 0 01-.585-.585v-16.475a.587.587 0 01.585-.585h20.463a.587.587 0 01.585.585v16.475a.587.587 0 01-.585.585zm-19.878-1.194h19.28v-15.281H22.74v15.281z" fill="#282828"/><path d="M77.458 123.133h-20.45v16.475h20.45v-16.475z" fill="#fff"/><path d="M77.457 140.192h-20.45a.588.588 0 01-.585-.585v-16.475a.587.587 0 01.585-.585h20.45a.588.588 0 01.585.585v16.475a.587.587 0 01-.585.585zm-19.865-1.194h19.304v-15.281H57.592v15.281z" fill="#282828"/><path d="M112.318 123.133h-20.45v16.475h20.45v-16.475z" fill="#fff"/><path d="M112.317 140.192h-20.45a.588.588 0 01-.586-.585v-16.475a.587.587 0 01.585-.585h20.451a.585.585 0 01.585.585v16.475a.586.586 0 01-.585.585zm-19.866-1.194h19.281v-15.281H92.415l.036 15.281z" fill="#282828"/><path d="M148.333 123.133h-20.45v16.475h20.45v-16.475z" fill="#fff"/><path d="M148.332 140.192h-20.45a.59.59 0 01-.414-.171.59.59 0 01-.171-.414v-16.475a.59.59 0 01.171-.414.59.59 0 01.414-.171h20.45a.563.563 0 01.418.168.583.583 0 01.167.417v16.475a.566.566 0 01-.167.417.574.574 0 01-.418.168zm-19.865-1.194h19.28v-15.281h-19.28v15.281z" fill="#282828"/><path d="M183.193 123.133h-20.451v16.475h20.451v-16.475z" fill="#fff"/><path d="M183.144 140.192h-20.403a.585.585 0 01-.585-.585v-16.475a.586.586 0 01.585-.585h20.403a.59.59 0 01.414.171.59.59 0 01.171.414v16.475a.59.59 0 01-.171.414.59.59 0 01-.414.171zm-19.866-1.194h19.281v-15.281h-19.233l-.048 15.281zM66.569 66.21a.561.561 0 01-.454-.226 81.208 81.208 0 01-5.659-8.357.585.585 0 111.003-.597 82.372 82.372 0 005.122 7.664l6.685-8.357a.583.583 0 011.013.049.586.586 0 01-.105.68l-7.164 8.906a.61.61 0 01-.441.238zm71.597 34.084a.585.585 0 01-.501-.287 91.09 91.09 0 00-4.776-7.163.575.575 0 01.12-.824.583.583 0 01.811.12 89.483 89.483 0 014.358 6.435 40.206 40.206 0 015.515-7.689.585.585 0 01.86.788 38.958 38.958 0 00-5.814 8.357.61.61 0 01-.501.311l-.072-.048zm-37.212 36.473a.578.578 0 01-.525-.322l-4-8.119a.587.587 0 011.05-.525l3.439 6.996a35.718 35.718 0 015.265-8.249.557.557 0 01.412-.175.566.566 0 01.412.175.587.587 0 01.071.823 34.266 34.266 0 00-5.587 9.097.574.574 0 01-.513.359l-.024-.06z" fill="#282828"/></svg>
